X:180
T:Polska efter Per Karlsson Viksten
T:(SvL Jämtland 180)
R:Polska
S:Per Karlsson Viksten
O:Undersåker, Jämtland
B:Svenska Låtar Jämtland
M:3/4
L:1/8
K:A
v(3e(fg) (g<a) (g<a)|ed cB (B{cB})A-|Ac de (3f(e^d)|(3e(fg) [ee]4:|
|:ef dd dd|de cc cc|BA GA (3B(AG)|(3A(Bc) (ce) [ee]2|
ef dd dd|de cc cc|BA GA (3B(AG)|(3A(Bc) [AA]4:|

